!!!OTL: De Kerw Was haetten unsre Bauern denn,
!!!ARE: Europa, Mitteleuropa, Deutschland, Untermainfranken, Spessart
!!!SCT: D0175
!!!YEM: Copyright 1995, estate of Helmut Schaffrath.
**kern
*ICvox
*Ivox
!! Mixed meters:  2/4; 3/4
*M2/4
*k[f#]
*G:
{8d
=1
8.g
16g
8g
8g
=2
*M3/4
8g
8b
4g
8r}
{16b
16b
=3
*M2/4
8.a
16g
8f#
8e
=4
4d
8r}
{16dd
16dd
=5
8dd
8dd
8cc
8a
=6
4g
8r}
{8b
=7
8dd
8dd
8cc
8a
=8
8dd
8dd
8b}
{8g
=9
8a
8a
8.b
16a
=10
8g
8b
8dd}
{8b
=11
8dd
8dd
8cc
8a
=12
8dd
8dd
8b}
{8g
=13
8a
8a
8.b
16a
=14
4g
8r}
==
!!!AGN: Brauchtums - Lied
!!!ONB: ESAC (Essen Associative Code) Database: DVA
!!!AMT: irregular
!!!AIN: vox
!!!EED: Helmut Schaffrath
!!!EEV: 1.0
*-
